X:1
T:Title
L:1/8
M:4/4
K:C
V:1 treble nm="Grand Piano"
V:1
 z4 z[Q:1/4=100] E F2 | E2 D2 E2 GG | F4- FDDE | F2 AA ^GA B2 | E4- EEAB | c2 BA A2 GF | F4- FDGA | %7
 B2 AG G2 FE | E4- EEAB | c2 BA A2 GF | F4- FDGA | B2 A2 c2 BA |[M:3/8] A3 |[M:5/8] c c2 c2 | %14
[M:4/4] B2 BA A2 BA | G3 B B2 BA | A2 A2 G2 AG | F E2 E AAAG | B4 GGAG | F E2 G F2 GG | %20
 F2 D2 F/E/F/G/ FE | E3 G F2 GG | F2 D2 F/E/F/G/ FE | E6 z2 |] %24

